X:1
T:Lima, 77.77.77 D
T:Lima, 77.77.77 D
T:Anonymous, 1859
T:Public Domain Courtesy of the Cyber Hymnal™
C:Anonymous, 1859
Z:Public Domain
Z:Courtesy of the Cyber Hymnal™
%%score ( 1 2 ) ( 3 4 )
L:1/8
Q:1/4=93
M:3/4
K:G
V:1 treble 
V:2 treble 
V:3 bass 
V:4 bass 
V:1
|: [DG][DA] | [DB]2 [Dd]2 [DA][DB] | [Ec]4 BA | GE [EA]2 [DF]2 | [DG]4 :| [Gd][Gd] | %6
 [Ge]2 [Fd]2 [GB]G | [Fd]4 DG | E[EA] [DG]2 [CF]2 | [B,G]4 |] %10
V:2
|: x2 | x6 | x6 | x E x4 | x4 :| x2 | x5 G | x4 DG | E x5 | x4 |] %10
V:3
|: [B,,G,][D,F,] | G,2 [B,,G,]2 [D,F,]G, | [C,G,]4 G,[D,F,] | [D,F,][C,F,] [A,,C]2 [D,A,]2 | %4
 [G,,B,]4 :| [G,B,][G,B,] | [C,C]2 [D,A,]2 G,[E,G,] | [D,A,]4 D,G, | E,[A,,C] B,2 [D,A,]2 | %9
 [G,,G,]4 |] %10
V:4
|: x2 | G,2 x G, x2 | x4 G, x | x6 | x4 :| x2 | x4 G, x | x4 D,G, | E, (B,, C,) x3 | x4 |] %10

